X:26
T:Father's Hall
C:Nancy Blake
N:TablEdited by Mike Black 
L:1/8
Q:1/4=190
M:4/4
K:G
z8 |: "G"[B2D2G,2] Bd BA GA | "G"B2 d2 "C"e2 d2 | "G"B2 Bd BA GA | "G"B2 d2 "Em"{d}e2 z2 | 
"G"B2 Bd BA GA | "G"B2 d2 (3"C"ege d2 | "G"[B2D2G,2] Bd BA GA | "B7"BG AF "Em"E2 z2 :| ED "Em"EF GA BG | 
"D"A2 F2 E2 D2 | "Em"ED EF GA BG | "D"A2 F2 [d2F2] z2 | "G"[BD]B (3B^cd e2 d2 | 
"D"[AD]B AG FD FG | A2 F2 (3EFE DF | "Em"DE EF ED EF | "G"G2 BG "D"F2 AF | "Em"EF (3EFED/ B,2 B,D | 
ED EF GA BG | "D"AF DF [d2F2] z2 | "G"[G2B,2] z2 "D"[F3A,3]D | "Em"EF ED B,2 B,D | 
ED EG "D"FE DF | "Em"DE EF ED EF | "G"G2 BG "D"F2 AF | "Em"EF (3EFED/ B,2 B,D | 
ED EF GA BG | "D"AF DF [d2F2] z2 | "G"(3[GB,][GB,][GB,] [G2B,2] "D"[F2A,2] [FA,]D | 
"Em"EF (3EFED/ B,2 B,D | ED EG "D"FE DF | "Em"DE EF EF GA | z8 | z8 | z8 | 
 

